Adwaita/symbolic/status/battery-caution-symbolic.svg

<?xml version="1.0" encoding="UTF-8"?>
<svg height="16px" viewBox="0 0 16 16" width="16px" xmlns="http://www.w3.org/2000/svg">
    <g fill="#ff7800">
        <path d="m 9 12 c 0 0.550781 -0.449219 1 -1 1 s -1 -0.449219 -1 -1 s 0.449219 -1 1 -1 s 1 0.449219 1 1 z m 0 0"/>
        <path d="m 7 0 c -1 0 -1 1 -1 1 v 1 h -1 s -0.707031 -0.015625 -1.449219 0.355469 c -0.738281 0.371093 -1.550781 1.3125 -1.550781 2.644531 v 8 s -0.015625 0.710938 0.355469 1.449219 c 0.371093 0.738281 1.3125 1.550781 2.644531 1.550781 h 6 s 0.707031 0.015625 1.449219 -0.355469 c 0.738281 -0.371093 1.550781 -1.3125 1.550781 -2.644531 v -8 c 0 -1.332031 -0.8125 -2.273438 -1.550781 -2.644531 c -0.742188 -0.367188 -1.449219 -0.355469 -1.449219 -0.355469 h -1 v -1 c 0 -1 -1 -1 -1 -1 z m 4 4 c 0.554688 0 1 0.445312 1 1 v 8 c 0 0.554688 -0.445312 1 -1 1 h -6 c -0.554688 0 -1 -0.445312 -1 -1 v -8 c 0 -0.554688 0.445312 -1 1 -1 z m 0 0"/>
        <path d="m 7 5 v 4 c 0 0.550781 0.449219 1 1 1 s 1 -0.449219 1 -1 v -4 z m 0 0"/>
    </g>
</svg>

<?xml version="1.0" encoding="UTF-8"?>
<svg xmlns="http://www.w3.org/2000/svg" xmlns:xlink="http://www.w3.org/1999/xlink" width="16px" height="16px" viewBox="0 0 16 16" version="1.1">
<g id="surface1762771">
<path style=" stroke:none;fill-rule:nonzero;fill:rgb(100%,47.058824%,0%);fill-opacity:1;" d="M 9 12 C 9 12.550781 8.550781 13 8 13 C 7.449219 13 7 12.550781 7 12 C 7 11.449219 7.449219 11 8 11 C 8.550781 11 9 11.449219 9 12 Z M 9 12 "/>
<path style=" stroke:none;fill-rule:nonzero;fill:rgb(100%,47.058824%,0%);fill-opacity:1;" d="M 7 0 C 6 0 6 1 6 1 L 6 2 L 5 2 C 5 2 4.292969 1.984375 3.550781 2.355469 C 2.8125 2.726562 2 3.667969 2 5 L 2 13 C 2 13 1.984375 13.710938 2.355469 14.449219 C 2.726562 15.1875 3.667969 16 5 16 L 11 16 C 11 16 11.707031 16.015625 12.449219 15.644531 C 13.1875 15.273438 14 14.332031 14 13 L 14 5 C 14 3.667969 13.1875 2.726562 12.449219 2.355469 C 11.707031 1.988281 11 2 11 2 L 10 2 L 10 1 C 10 0 9 0 9 0 Z M 11 4 C 11.554688 4 12 4.445312 12 5 L 12 13 C 12 13.554688 11.554688 14 11 14 L 5 14 C 4.445312 14 4 13.554688 4 13 L 4 5 C 4 4.445312 4.445312 4 5 4 Z M 11 4 "/>
<path style=" stroke:none;fill-rule:nonzero;fill:rgb(100%,47.058824%,0%);fill-opacity:1;" d="M 7 5 L 7 9 C 7 9.550781 7.449219 10 8 10 C 8.550781 10 9 9.550781 9 9 L 9 5 Z M 7 5 "/>
</g>
</svg>
